src/assets/images/contacts/social/Phone.svg

<svg width="32" height="32" viewBox="0 0 32 32" fill="none" xmlns="http://www.w3.org/2000/svg">
<rect x="0.5" y="0.5" width="31" height="31" stroke="#C81426"/>
<path d="M23.3021 10.534L21.1721 8.406C20.9121 8.146 20.5641 8 20.1961 8C19.8281 8 19.48 8.144 19.22 8.406L16.926 10.696C16.666 10.956 16.52 11.306 16.52 11.674C16.52 12.044 16.664 12.39 16.926 12.652L18.718 14.446C18.3098 15.3972 17.7233 16.2614 16.99 16.992C16.256 17.73 15.398 18.312 14.446 18.724L12.654 16.93C12.394 16.67 12.046 16.524 11.678 16.524C11.4965 16.5234 11.3167 16.5589 11.1491 16.6286C10.9815 16.6984 10.8295 16.8008 10.702 16.93L8.406 19.22C8.146 19.48 8 19.8301 8 20.1981C8 20.5681 8.144 20.9141 8.406 21.1761L10.534 23.3041C10.978 23.7481 11.59 24.0021 12.218 24.0021C12.348 24.0021 12.474 23.9921 12.602 23.9701C15.25 23.5341 17.878 22.1241 20.0001 20.0041C22.1201 17.88 23.5281 15.252 23.9681 12.602C24.0941 11.85 23.8421 11.076 23.3021 10.534V10.534ZM22.5501 12.364C22.1601 14.722 20.8921 17.074 18.982 18.984C17.072 20.8941 14.722 22.1621 12.364 22.5521C12.068 22.6021 11.764 22.5021 11.548 22.2881L9.45801 20.1981L11.674 17.98L14.07 20.3801L14.088 20.3981L14.52 20.2381C15.8299 19.7565 17.0194 18.9958 18.006 18.0088C18.9927 17.0218 19.7529 15.8321 20.2341 14.522L20.3941 14.09L17.978 11.676L20.1941 9.45801L22.2841 11.548C22.5001 11.764 22.6001 12.068 22.5501 12.364Z" fill="#C81426"/>
</svg>

<svg xmlns="http://www.w3.org/2000/svg" width="32" height="32" fill="none" viewBox="0 0 32 32"><path stroke="#C81426" d="M.5.5h31v31H.5z"/><path fill="#C81426" d="M23.302 10.534l-2.13-2.128a1.376 1.376 0 0 0-1.952 0l-2.294 2.29a1.38 1.38 0 0 0 0 1.956l1.792 1.794a8.107 8.107 0 0 1-1.728 2.546 8.124 8.124 0 0 1-2.544 1.732l-1.792-1.794a1.376 1.376 0 0 0-1.952 0l-2.296 2.29a1.38 1.38 0 0 0 0 1.956l2.128 2.128a2.395 2.395 0 0 0 2.068.666c2.648-.436 5.276-1.846 7.398-3.966 2.12-2.124 3.528-4.752 3.968-7.402a2.384 2.384 0 0 0-.666-2.068zm-.752 1.83c-.39 2.358-1.658 4.71-3.568 6.62-1.91 1.91-4.26 3.178-6.618 3.568a.94.94 0 0 1-.816-.264l-2.09-2.09 2.216-2.218 2.396 2.4.018.018.432-.16a9.625 9.625 0 0 0 5.714-5.716l.16-.432-2.416-2.414 2.216-2.218 2.09 2.09c.216.216.316.52.266.816z"/></svg>
